Icons/Colored/Camera.svg

<svg xmlns="http://www.w3.org/2000/svg" xml:space="preserve" fill-rule="evenodd" stroke-linejoin="round" stroke-miterlimit="2" clip-rule="evenodd" viewBox="0 0 64 64">
  <g id="grey">
    <path fill="#b5b5b5" d="M17.098 16.456H53.32c2.557.001 4.661 2.103 4.664 4.66v27.986c-.001 2.558-2.106 4.663-4.664 4.664H10.678c-2.557-.002-4.661-2.107-4.662-4.664V21.116c.001-2.557 2.105-4.662 4.662-4.664h6.42v.004ZM43.814 35.11c-.003-6.393-5.266-11.654-11.66-11.654-6.396 0-11.66 5.264-11.66 11.66s5.264 11.66 11.66 11.66c6.395-.005 11.655-5.266 11.66-11.66v-.006Z"/>
  </g>
  <g id="white">
    <path fill="#f4f4f4" d="M44.204 35.096v.02c0 6.61-5.44 12.05-12.05 12.05s-12.05-5.44-12.05-12.05 5.44-12.05 12.05-12.05h.006c6.598.011 12.026 5.433 12.044 12.03Zm-3.5.02v-.006c-.011-4.685-3.865-8.536-8.55-8.544-4.69 0-8.55 3.86-8.55 8.55 0 4.69 3.86 8.55 8.55 8.55 4.69 0 8.55-3.86 8.55-8.55Z"/>
  </g>
  <g id="black">
    <path d="M40.704 35.116c0 4.69-3.86 8.55-8.55 8.55-4.69 0-8.55-3.86-8.55-8.55 0-4.69 3.86-8.55 8.55-8.55 4.685.008 8.539 3.859 8.55 8.544v.006Z"/>
  </g>
  <g id="blue">
    <path fill="#73a7c7" d="M17.098 16.452h3.396l1.2-3.2a4.667 4.667 0 0 1 4.358-3.018h12.2a4.667 4.667 0 0 1 4.362 3.022l1.2 3.2H17.098v-.004Z"/>
  </g>
</svg>

<?xml version="1.0" encoding="UTF-8" standalone="no"?>
<!DOCTYPE svg PUBLIC "-//W3C//DTD SVG 1.1//EN" "http://www.w3.org/Graphics/SVG/1.1/DTD/svg11.dtd">
<svg width="100%" height="100%" viewBox="0 0 64 64" version="1.1" xmlns="http://www.w3.org/2000/svg" xmlns:xlink="http://www.w3.org/1999/xlink" xml:space="preserve" xmlns:serif="http://www.serif.com/" style="fill-rule:evenodd;clip-rule:evenodd;stroke-linejoin:round;stroke-miterlimit:2;">
    <g id="CinematicCameraOff">
        <path id="Icon_awesome-camera" d="M57.984,21.116L57.984,49.102C57.983,51.66 55.878,53.765 53.32,53.766L10.678,53.766C8.121,53.764 6.017,51.659 6.016,49.102L6.016,21.116C6.017,18.559 8.121,16.454 10.678,16.452L20.494,16.452L21.694,13.252C22.375,11.441 24.117,10.235 26.052,10.234L38.252,10.234C40.189,10.234 41.934,11.442 42.614,13.256L43.814,16.456L53.32,16.456C55.877,16.457 57.981,18.559 57.984,21.116ZM43.814,35.116C43.814,28.72 38.55,23.456 32.154,23.456C25.758,23.456 20.494,28.72 20.494,35.116C20.494,41.512 25.758,46.776 32.154,46.776C38.551,46.771 43.812,41.507 43.814,35.11L43.814,35.116ZM40.704,35.116C40.704,39.806 36.844,43.666 32.154,43.666C27.464,43.666 23.604,39.806 23.604,35.116C23.604,30.426 27.464,26.566 32.154,26.566C36.839,26.574 40.693,30.425 40.704,35.11L40.704,35.116Z" style="fill:#b5b5b5;fill-rule:nonzero;"/>
        <path id="Icon_awesome-camera1" serif:id="Icon_awesome-camera" d="M17.098,16.452L20.494,16.452L21.694,13.252C22.375,11.441 24.117,10.235 26.052,10.234L38.252,10.234C40.189,10.234 41.934,11.442 42.614,13.256L43.814,16.456L17.098,16.456L17.098,16.452Z" style="fill:#73a7c7;"/>
        <path id="Icon_awesome-camera2" serif:id="Icon_awesome-camera" d="M40.704,35.116C40.704,39.806 36.844,43.666 32.154,43.666C27.464,43.666 23.604,39.806 23.604,35.116C23.604,30.426 27.464,26.566 32.154,26.566C36.839,26.574 40.693,30.425 40.704,35.11L40.704,35.116Z"/>
    </g>
</svg>
